source/images/icons/vk-icon.svg

<svg width="20" height="20" viewBox="0 0 20 20" xmlns="http://www.w3.org/2000/svg">
<path fill-rule="evenodd" clip-rule="evenodd"
d="M1.40589 1.40589C0 2.81177 0 5.0745 0 9.6V10.4C0 14.9255 0 17.1882 1.40589 18.5941C2.81177 20 5.0745 20 9.6 20H10.4C14.9255 20 17.1882 20 18.5941 18.5941C20 17.1882 20 14.9255 20 10.4V9.6C20 5.0745 20 2.81177 18.5941 1.40589C17.1882 0 14.9255 0 10.4 0H9.6C5.0745 0 2.81177 0 1.40589 1.40589ZM3.37505 6.08337C3.48338 11.2834 6.08337 14.4084 10.6417 14.4084H10.9001V11.4334C12.5751 11.6 13.8417 12.825 14.35 14.4084H16.7167C16.0667 12.0417 14.3583 10.7334 13.2916 10.2334C14.3583 9.61671 15.8583 8.11671 16.2166 6.08337H14.0666C13.5999 7.73337 12.2168 9.23337 10.9001 9.37504V6.08337H8.75V11.85C7.41667 11.5167 5.73338 9.90004 5.65837 6.08337H3.37505Z"/>
</svg>

<svg width="20" height="20" fill="none" xmlns="http://www.w3.org/2000/svg"><path fill-rule="evenodd" clip-rule="evenodd" d="M1.406 1.406C0 2.812 0 5.074 0 9.6v.8c0 4.525 0 6.788 1.406 8.194C2.812 20 5.074 20 9.6 20h.8c4.525 0 6.788 0 8.194-1.406C20 17.188 20 14.925 20 10.4v-.8c0-4.526 0-6.788-1.406-8.194C17.188 0 14.925 0 10.4 0h-.8C5.074 0 2.812 0 1.406 1.406Zm1.969 4.677c.108 5.2 2.708 8.325 7.267 8.325h.258v-2.975c1.675.167 2.942 1.392 3.45 2.975h2.367c-.65-2.366-2.359-3.675-3.425-4.175 1.066-.616 2.566-2.116 2.925-4.15h-2.15c-.467 1.65-1.85 3.15-3.167 3.292V6.083H8.75v5.767c-1.333-.333-3.017-1.95-3.092-5.767H3.375Z" fill="#BDBDBD"/></svg>
